Newaita/actions/16/y-zoom-in.svg

<svg height="16" viewBox="0 0 16 16" width="16" xmlns="http://www.w3.org/2000/svg"><g fill="#424242"><path d="m2.644531 1.449219c-.730469 0-1.320312.589843-1.320312 1.320312v2.648438h1.320312v-1.984375c0-.367188.296875-.664063.664063-.664063h1.984375v-1.320312zm10.585938 9.261719v1.984374c0 .363282-.296875.660157-.660157.660157h-1.984374v1.324219h2.644531c.734375 0 1.324219-.589844 1.324219-1.324219v-2.644531zm0 0"/><path d="m1.984375 9.386719c-.367187 0-.660156.292969-.660156.660156v3.96875c0 .367187.292969.664063.660156.664063h3.96875c.367187 0 .660156-.296876.660156-.664063v-3.96875c0-.367187-.292969-.660156-.660156-.660156zm.992187 1.324219h1.984376c.183593 0 .332031.144531.332031.328124v1.984376c0 .183593-.148438.332031-.332031.332031h-1.984376c-.183593 0-.332031-.148438-.332031-.332031v-1.984376c0-.183593.148438-.328124.332031-.328124zm0 0"/><path d="m11.578125 4.425781h1.320313v3.296875c0 .183594-.144532.332032-.328126.332032h-.664062c-.183594 0-.328125-.148438-.328125-.332032zm0 0"/><path d="m14.554688 4.753906h-4.632813l2.316406-3.304687zm0 0"/></g></svg>

<svg xmlns="http://www.w3.org/2000/svg" xmlns:xlink="http://www.w3.org/1999/xlink" width="16px" height="16px" viewBox="0 0 16 16" version="1.1">
<g id="surface1">
     <defs>
  <style id="current-color-scheme" type="text/css">
   .ColorScheme-Text { color:#424242; } .ColorScheme-Highlight { color:#eeeeee; }
  </style>
 </defs>
<path style="fill:currentColor" class="ColorScheme-Text" d="M 2.644531 1.449219 C 1.914062 1.449219 1.324219 2.039062 1.324219 2.769531 L 1.324219 5.417969 L 2.644531 5.417969 L 2.644531 3.433594 C 2.644531 3.066406 2.941406 2.769531 3.308594 2.769531 L 5.292969 2.769531 L 5.292969 1.449219 Z M 13.230469 10.710938 L 13.230469 12.695312 C 13.230469 13.058594 12.933594 13.355469 12.570312 13.355469 L 10.585938 13.355469 L 10.585938 14.679688 L 13.230469 14.679688 C 13.964844 14.679688 14.554688 14.089844 14.554688 13.355469 L 14.554688 10.710938 Z M 13.230469 10.710938 "/>
     <defs>
  <style id="current-color-scheme" type="text/css">
   .ColorScheme-Text { color:#424242; } .ColorScheme-Highlight { color:#eeeeee; }
  </style>
 </defs>
<path style="fill:currentColor" class="ColorScheme-Text" d="M 1.984375 9.386719 C 1.617188 9.386719 1.324219 9.679688 1.324219 10.046875 L 1.324219 14.015625 C 1.324219 14.382812 1.617188 14.679688 1.984375 14.679688 L 5.953125 14.679688 C 6.320312 14.679688 6.613281 14.382812 6.613281 14.015625 L 6.613281 10.046875 C 6.613281 9.679688 6.320312 9.386719 5.953125 9.386719 Z M 2.976562 10.710938 L 4.960938 10.710938 C 5.144531 10.710938 5.292969 10.855469 5.292969 11.039062 L 5.292969 13.023438 C 5.292969 13.207031 5.144531 13.355469 4.960938 13.355469 L 2.976562 13.355469 C 2.792969 13.355469 2.644531 13.207031 2.644531 13.023438 L 2.644531 11.039062 C 2.644531 10.855469 2.792969 10.710938 2.976562 10.710938 Z M 2.976562 10.710938 "/>
     <defs>
  <style id="current-color-scheme" type="text/css">
   .ColorScheme-Text { color:#424242; } .ColorScheme-Highlight { color:#eeeeee; }
  </style>
 </defs>
<path style="fill:currentColor" class="ColorScheme-Text" d="M 11.578125 4.425781 L 12.898438 4.425781 L 12.898438 7.722656 C 12.898438 7.90625 12.753906 8.054688 12.570312 8.054688 L 11.90625 8.054688 C 11.722656 8.054688 11.578125 7.90625 11.578125 7.722656 Z M 11.578125 4.425781 "/>
     <defs>
  <style id="current-color-scheme" type="text/css">
   .ColorScheme-Text { color:#424242; } .ColorScheme-Highlight { color:#eeeeee; }
  </style>
 </defs>
<path style="fill:currentColor" class="ColorScheme-Text" d="M 14.554688 4.753906 L 9.921875 4.753906 L 12.238281 1.449219 Z M 14.554688 4.753906 "/>
</g>
</svg>
